X: 1
T: Humours Of Loughrea, The
T: Tommy Whelan's
M: 4/4
L: 1/8
D: 1991 Gort Session recording
K: G
G3A BAA2|bgag edBA|G2 GA BAGB|ABAG EGDE|
~G3A BAA2|bgag egdB|[G3G,3]A BAGB|ABAG EGD2||
geeg fd B/c/d|geef gaba|geeg fd B/c/d|egfd e2 ef|
geeg fd B/c/d|geef gaba|~g3e a2 ge|dgbg edBA||
